X:156
T:Jefferson and Liberty
S:Jim Coon to CoMandoList TOW
R:jig
M:6/8
L:1/8
Q:3/8=120
K:Am
|:AB | "Am"c2A ABA|E2A ABc|
"G"B2G GAB|d2B GAB|!
"Am"c2A ABA|E2A A2e|
"Em"edc "G"BcB|"Am"A3- A:|!
|:cB|"Am"A2B c2d|"Em"e2^f g3|
"C"e2^f g2e|"G"dBG dBG|!
"Am"A2B "E7"c2d|"Am"e^fg "Dm"a3|
"Am"edc "E7"BcB|"Am"A3- A:|!
